src/assets/images/homework/ico-news.svg

<svg xmlns="http://www.w3.org/2000/svg" width="17" height="17" xml:space="preserve"><path fill="#4B5256" d="M4.4 4.4h8.2V3.1H4.4v1.3zm0 3.1h8.2V6.2H4.4v1.3zm0 3.1h8.2V9.3H4.4v1.3zm0 2.8h5.2v-1.3H4.4v1.3zM12.3 0H4.7C3.1 0 1.9 1.3 1.9 2.8v11.3c0 1.6 1.3 2.8 2.8 2.8h7.9c1.4 0 2.5-1.1 2.5-2.5V2.8c0-1.5-1.2-2.8-2.8-2.8zm1.8 14.5c0 .8-.7 1.5-1.5 1.5H4.7c-1 0-1.9-.8-1.9-1.9V2.8c0-1 .8-1.9 1.9-1.9h7.6c1 0 1.9.8 1.9 1.9v11.7z"/></svg>

<?xml version="1.0" encoding="utf-8"?>
<!-- Generator: Adobe Illustrator 18.0.0, SVG Export Plug-In . SVG Version: 6.00 Build 0)  -->
<!DOCTYPE svg PUBLIC "-//W3C//DTD SVG 1.1//EN" "http://www.w3.org/Graphics/SVG/1.1/DTD/svg11.dtd">
<svg version="1.1" id="Layer_1" xmlns="http://www.w3.org/2000/svg" xmlns:xlink="http://www.w3.org/1999/xlink" x="0px" y="0px"
	 width="17px" height="17px" viewBox="0 0 17 17" enable-background="new 0 0 17 17" xml:space="preserve">
<path fill="#4B5256" d="M4.4,4.4h8.2V3.1H4.4V4.4z M4.4,7.5h8.2V6.2H4.4V7.5z M4.4,10.6h8.2V9.3H4.4V10.6z M4.4,13.4h5.2v-1.3H4.4
	V13.4z M12.3,0H4.7C3.1,0,1.9,1.3,1.9,2.8v11.3c0,1.6,1.3,2.8,2.8,2.8h7.9c1.4,0,2.5-1.1,2.5-2.5V2.8C15.1,1.3,13.9,0,12.3,0z
	 M14.1,14.5c0,0.8-0.7,1.5-1.5,1.5H4.7c-1,0-1.9-0.8-1.9-1.9V2.8c0-1,0.8-1.9,1.9-1.9h7.6c1,0,1.9,0.8,1.9,1.9V14.5z"/>
</svg>
